svg/ionicons/wifi-sharp.svg

<svg xmlns="http://www.w3.org/2000/svg" width="512" height="512" viewBox="0 0 512 512"><path fill-rule="evenodd" d="M337.78 362.819c-4.246-8.453-11.074-15.687-12.601-17.31-3.05-3.241-7.535-7.397-13.589-11.505-12.228-8.299-30.57-16.191-55.59-16.191s-43.362 7.892-55.59 16.191c-6.054 4.108-10.539 8.264-13.589 11.505a63 63 0 00-3.548 4.097c-.422.535-4.307 4.76-9.053 13.213L256 442z" clip-rule="evenodd"/><path fill-rule="evenodd" d="M425.25 279.287s-7.995-10.229-15.703-18.928c-5.983-6.753-18.1-17.71-30.901-26.377-25.762-17.444-63.897-35.077-122.646-35.077s-96.884 17.633-122.646 35.077c-12.801 8.667-20.835 15.473-28.869 24.172S86.75 279.287 86.75 279.287l56.634 54.591 11.037-12.388.187-.201c.2-.211.549-.573 1.044-1.065a91 91 0 014.709-4.326c4.294-3.693 10.823-8.733 19.473-13.804C197.103 291.97 222.709 281.78 256 281.78s58.897 10.19 76.166 20.314c8.65 5.071 15.179 10.111 19.473 13.804a91 91 0 014.709 4.326c.495.492.844.854 1.044 1.065l.187.201.009.01 11.028 12.378z" clip-rule="evenodd"/><path fill-rule="evenodd" d="M512 195.36s-4.5-8.36-11.85-16.485c-4.391-4.855-6.219-7.406-11.155-12.511-9.868-10.207-24.703-23.648-44.901-37.04C403.583 102.463 341.778 76 256 76s-147.583 26.463-188.094 53.324c-20.198 13.392-35.033 26.833-44.9 37.04-4.937 5.105-8.639 9.411-11.156 12.511-1.259 1.55-1.784 2.241-2.898 3.7C5.254 187.42 0 195.36 0 195.36l58.06 55.873 11.004-13.001.002-.004.002-.002.08-.092q.133-.154.469-.529a100 100 0 012.144-2.309c1.962-2.056 4.979-5.083 9.02-8.76 8.092-7.361 20.236-17.28 36.189-27.221 31.891-19.872 78.774-39.709 139.03-39.709s107.139 19.837 139.03 39.709c15.953 9.941 28.097 19.86 36.189 27.221 4.041 3.677 7.058 6.704 9.02 8.76a100 100 0 012.144 2.309q.336.375.469.529l.036.042.044.051.002.001.002.004 11.004 13.001z" clip-rule="evenodd"/></svg>

<svg width="512" height="512" viewBox="0 0 512 512" xmlns="http://www.w3.org/2000/svg">
<path fill-rule="evenodd" clip-rule="evenodd" d="M337.78 362.819C333.534 354.366 326.706 347.132 325.179 345.509C322.129 342.268 317.644 338.112 311.59 334.004C299.362 325.705 281.02 317.813 256 317.813C230.98 317.813 212.638 325.705 200.41 334.004C194.356 338.112 189.871 342.268 186.821 345.509C185.294 347.132 184.116 348.537 183.273 349.606C182.851 350.141 178.966 354.366 174.22 362.819L256 442L337.78 362.819Z" />
<path fill-rule="evenodd" clip-rule="evenodd" d="M425.25 279.287C425.25 279.287 417.255 269.058 409.547 260.359C403.564 253.606 391.447 242.649 378.646 233.982C352.884 216.538 314.749 198.905 256 198.905C197.251 198.905 159.116 216.538 133.354 233.982C120.553 242.649 112.519 249.455 104.485 258.154C96.451 266.854 86.7496 279.287 86.7496 279.287L143.384 333.878L154.421 321.49C154.446 321.463 154.509 321.395 154.608 321.289C154.808 321.078 155.157 320.716 155.652 320.224C156.643 319.24 158.218 317.742 160.361 315.898C164.655 312.205 171.184 307.165 179.834 302.094C197.103 291.97 222.709 281.78 256 281.78C289.291 281.78 314.897 291.97 332.166 302.094C340.816 307.165 347.345 312.205 351.639 315.898C353.782 317.742 355.357 319.24 356.348 320.224C356.843 320.716 357.192 321.078 357.392 321.289C357.491 321.395 357.554 321.462 357.579 321.49C357.591 321.504 357.595 321.507 357.588 321.5L368.616 333.878L425.25 279.287Z" />
<path fill-rule="evenodd" clip-rule="evenodd" d="M512 195.36C512 195.36 507.5 187 500.15 178.875C495.759 174.02 493.931 171.469 488.995 166.364C479.127 156.157 464.292 142.716 444.094 129.324C403.583 102.463 341.778 76 256 76C170.222 76 108.417 102.463 67.9063 129.324C47.7083 142.716 32.8725 156.157 23.0052 166.364C18.0692 171.469 14.3673 175.775 11.85 178.875C10.591 180.425 10.066 181.116 8.95243 182.575C5.25382 187.42 0 195.36 0 195.36L58.06 251.233L69.0637 238.232L69.0664 238.228L69.0684 238.226C69.08 238.213 69.1066 238.182 69.1483 238.134C69.2369 238.032 69.3932 237.854 69.6168 237.605C70.064 237.106 70.7799 236.323 71.7606 235.296C73.7228 233.24 76.7398 230.213 80.7814 226.536C88.873 219.175 101.017 209.256 116.97 199.315C148.861 179.443 195.744 159.606 256 159.606C316.256 159.606 363.139 179.443 395.03 199.315C410.983 209.256 423.127 219.175 431.219 226.536C435.26 230.213 438.277 233.24 440.239 235.296C441.22 236.323 441.936 237.106 442.383 237.605C442.607 237.854 442.763 238.032 442.852 238.134L442.888 238.176C442.91 238.201 442.925 238.218 442.932 238.227L442.934 238.228L442.936 238.232L453.94 251.233L512 195.36Z" />
</svg>
